X: 1
T: the Indian Queen
O: 1701
Z: 1997 by John Chambers <jc@trillian.mit.edu>
N: Barnes p. 57 (dated 1701); Hunt p.12 #39 (in C)
M: 2/4
L: 1/16
K: D
|: fg \
| "D"a2f2 d2f2 | "A7"e4 A4 | "D"F2A2 A2f2 | "A7"e4- e2fg \
| "D"a2f2 d2f2 | "A7"e4 A4 | "D"F2A2 "A7"A2f2 | "D"d6 :|
|: cd \
| "A"edcB A2e2 | "F#m"f2c2 "Bm"d2B2 | "D"fga2 "E7"b2^g2 | "A"a4- a2ef \
| "G"gfed "A"c2a2 | "G"B2g2 "D"A2fg | "Em"e2d2 "A7"e2c2 | "D"d6 :|
